static/img/kroki/1fdda42cf9013cf6b43efbc982c50470.svg

<?xml version="1.0" encoding="us-ascii" standalone="no"?><svg xmlns="http://www.w3.org/2000/svg" xmlns:xlink="http://www.w3.org/1999/xlink" contentStyleType="text/css" height="374px" preserveAspectRatio="none" style="width:328px;height:374px;" version="1.1" viewBox="0 0 328 374" width="328px" zoomAndPan="magnify"><defs/><g><!--class kubernetes_csi_storage_capacity--><g id="elem_kubernetes_csi_storage_capacity"><rect codeLine="23" fill="#3D176E" height="39.7891" id="kubernetes_csi_storage_capacity" rx="2.5" ry="2.5" style="stroke:#000D19;stroke-width:0.5;" width="314" x="7" y="328.58"/><ellipse cx="22" cy="348.4745" fill="#ADD1B2" rx="11" ry="11" style="stroke:#181818;stroke-width:1.0;"/><path d="M24.9688,354.1152 Q24.3906,354.412 23.75,354.5527 Q23.1094,354.7089 22.4063,354.7089 Q19.9063,354.7089 18.5781,353.0683 Q17.2656,351.412 17.2656,348.287 Q17.2656,345.162 18.5781,343.5058 Q19.9063,341.8495 22.4063,341.8495 Q23.1094,341.8495 23.75,342.0058 Q24.4063,342.162 24.9688,342.4589 L24.9688,345.1777 Q24.3438,344.5995 23.75,344.3339 Q23.1563,344.0527 22.5313,344.0527 Q21.1875,344.0527 20.5,345.1308 Q19.8125,346.1933 19.8125,348.287 Q19.8125,350.3808 20.5,351.4589 Q21.1875,352.5214 22.5313,352.5214 Q23.1563,352.5214 23.75,352.2558 Q24.3438,351.9745 24.9688,351.3964 L24.9688,354.1152 Z " fill="#000000"/><text fill="#D9B8FF" font-family="Helvetica" font-size="17" lengthAdjust="spacing" textLength="272" x="41" y="354.3598">kubernetes_csi_storage_capacity</text></g><!--class kubernetes_resource--><g id="elem_kubernetes_resource"><rect codeLine="26" fill="#3D176E" height="39.7891" id="kubernetes_resource" rx="2.5" ry="2.5" style="stroke:#000D19;stroke-width:0.5;" width="216" x="56" y="167.79"/><ellipse cx="71" cy="187.6845" fill="#ADD1B2" rx="11" ry="11" style="stroke:#181818;stroke-width:1.0;"/><path d="M73.9688,193.3252 Q73.3906,193.622 72.75,193.7627 Q72.1094,193.9189 71.4063,193.9189 Q68.9063,193.9189 67.5781,192.2783 Q66.2656,190.622 66.2656,187.497 Q66.2656,184.372 67.5781,182.7158 Q68.9063,181.0595 71.4063,181.0595 Q72.1094,181.0595 72.75,181.2158 Q73.4063,181.372 73.9688,181.6689 L73.9688,184.3877 Q73.3438,183.8095 72.75,183.5439 Q72.1563,183.2627 71.5313,183.2627 Q70.1875,183.2627 69.5,184.3408 Q68.8125,185.4033 68.8125,187.497 Q68.8125,189.5908 69.5,190.6689 Q70.1875,191.7314 71.5313,191.7314 Q72.1563,191.7314 72.75,191.4658 Q73.3438,191.1845 73.9688,190.6064 L73.9688,193.3252 Z " fill="#000000"/><text fill="#D9B8FF" font-family="Helvetica" font-size="17" lengthAdjust="spacing" textLength="174" x="90" y="193.5698">kubernetes_resource</text></g><!--class resource--><g id="elem_resource"><rect codeLine="29" fill="#3D176E" height="39.7891" id="resource" rx="2.5" ry="2.5" style="stroke:#000D19;stroke-width:0.5;" width="113" x="107.5" y="7"/><ellipse cx="122.5" cy="26.8945" fill="#ADD1B2" rx="11" ry="11" style="stroke:#181818;stroke-width:1.0;"/><path d="M125.4688,32.5352 Q124.8906,32.832 124.25,32.9727 Q123.6094,33.1289 122.9063,33.1289 Q120.4063,33.1289 119.0781,31.4883 Q117.7656,29.832 117.7656,26.707 Q117.7656,23.582 119.0781,21.9258 Q120.4063,20.2695 122.9063,20.2695 Q123.6094,20.2695 124.25,20.4258 Q124.9063,20.582 125.4688,20.8789 L125.4688,23.5977 Q124.8438,23.0195 124.25,22.7539 Q123.6563,22.4727 123.0313,22.4727 Q121.6875,22.4727 121,23.5508 Q120.3125,24.6133 120.3125,26.707 Q120.3125,28.8008 121,29.8789 Q121.6875,30.9414 123.0313,30.9414 Q123.6563,30.9414 124.25,30.6758 Q124.8438,30.3945 125.4688,29.8164 L125.4688,32.5352 Z " fill="#000000"/><text fill="#D9B8FF" font-family="Helvetica" font-size="17" lengthAdjust="spacing" textLength="71" x="141.5" y="32.7798">resource</text></g><!--reverse link kubernetes_resource to kubernetes_csi_storage_capacity--><g id="link_kubernetes_resource_kubernetes_csi_storage_capacity"><path codeLine="32" d="M164,225.84 C164,256.36 164,297.69 164,328.25 " fill="none" id="kubernetes_resource-backto-kubernetes_csi_storage_capacity" style="stroke:#FFAF37;stroke-width:2.0;"/><polygon fill="none" points="164,207.84,158,225.84,170,225.84,164,207.84" style="stroke:#FFAF37;stroke-width:2.0;"/></g><!--reverse link resource to kubernetes_resource--><g id="link_resource_kubernetes_resource"><path codeLine="33" d="M164,65.05 C164,95.57 164,136.9 164,167.46 " fill="none" id="resource-backto-kubernetes_resource" style="stroke:#FFAF37;stroke-width:2.0;"/><polygon fill="none" points="164,47.05,158,65.05,170,65.05,164,47.05" style="stroke:#FFAF37;stroke-width:2.0;"/></g><!--SRC=[XPBDQy904CNl-IiMF0jQQQFGYnLAUv5IUm_ZxgnPako6cKd5VlplrLhBclXnVU_7l3V3vCwWmggMZQgmMY9nmeNpDH1KQaeKrhDG1b8zQy6EqhRv6BnS1UPGeNh2yXt5QMWJRxdJXKTcTHDP3w2B5ON6c_ru8V2yjT1BHCrAO9wAa5isWb4PCrcEhMsJxQ6zaHccTzZ10XcaFsGm69ZXf8rSZRguzp-nS1-eXl7Hva6mKxCJyKjTRBaZefATHG_-sOulO8ppAtKRQQ_xJkIHZlH53YQiTxI5akCO5YGCigbnrjaA9sDZqvFmypauqRlJgQBPVgf7GSuqkumb4Ammqr23TjjN_aoIxovAoA4XZR5zh9s2xx_w_VwrnEGyVd2I7m00]--></g></svg>

<svg xmlns="http://www.w3.org/2000/svg" width="328" height="374" viewBox="0 0 328 374"><rect width="314" height="39.789" x="7" y="328.58" fill="#3D176E" rx="2.5" ry="2.5" style="stroke:#000d19;stroke-width:.5"/><circle cx="22" cy="348.474" r="11" fill="#ADD1B2" style="stroke:#181818;stroke-width:1"/><path d="M24.969 354.115q-.578.297-1.219.438-.64.156-1.344.156-2.5 0-3.828-1.64-1.312-1.657-1.312-4.782t1.312-4.781q1.328-1.656 3.828-1.656.703 0 1.344.156.656.156 1.219.453v2.719q-.625-.579-1.219-.844-.594-.281-1.219-.281-1.343 0-2.031 1.078-.687 1.062-.687 3.156t.687 3.172q.688 1.062 2.031 1.062.625 0 1.219-.265.594-.281 1.219-.86z"/><text x="41" y="354.36" fill="#D9B8FF" font-family="Helvetica" font-size="17" textLength="272">kubernetes_csi_storage_capacity</text><rect width="216" height="39.789" x="56" y="167.79" fill="#3D176E" rx="2.5" ry="2.5" style="stroke:#000d19;stroke-width:.5"/><circle cx="71" cy="187.685" r="11" fill="#ADD1B2" style="stroke:#181818;stroke-width:1"/><path d="M73.969 193.325q-.578.297-1.219.438-.64.156-1.344.156-2.5 0-3.828-1.64-1.312-1.657-1.312-4.782t1.312-4.781q1.328-1.656 3.828-1.656.703 0 1.344.156.656.156 1.219.453v2.719q-.625-.578-1.219-.844-.594-.281-1.219-.281-1.344 0-2.031 1.078-.687 1.062-.687 3.156t.687 3.172q.688 1.062 2.031 1.062.625 0 1.219-.265.594-.281 1.219-.86z"/><text x="90" y="193.57" fill="#D9B8FF" font-family="Helvetica" font-size="17" textLength="174">kubernetes_resource</text><rect width="113" height="39.789" x="107.5" y="7" fill="#3D176E" rx="2.5" ry="2.5" style="stroke:#000d19;stroke-width:.5"/><circle cx="122.5" cy="26.895" r="11" fill="#ADD1B2" style="stroke:#181818;stroke-width:1"/><path d="M125.469 32.535q-.578.297-1.219.438-.64.156-1.344.156-2.5 0-3.828-1.64-1.312-1.657-1.312-4.782t1.312-4.781q1.328-1.656 3.828-1.656.703 0 1.344.156.656.156 1.219.453v2.719q-.625-.578-1.219-.844-.594-.281-1.219-.281-1.344 0-2.031 1.078-.687 1.062-.687 3.156t.687 3.172q.688 1.062 2.031 1.062.625 0 1.219-.265.594-.281 1.219-.86z"/><text x="141.5" y="32.78" fill="#D9B8FF" font-family="Helvetica" font-size="17" textLength="71">resource</text><path fill="none" d="M164 225.84v102.41m0-120.41-6 18h12zm0-142.79v102.41m0-120.41-6 18h12z" style="stroke:#ffaf37;stroke-width:2"/></svg>
